dist/svgs/unicons/line/newspaper.svg

<svg xmlns="http://www.w3.org/2000/svg" viewBox="0 0 24 24"><path d="M17 11h-1a1 1 0 000 2h1a1 1 0 000-2zm0 4h-1a1 1 0 000 2h1a1 1 0 000-2zm-6-6h6a1 1 0 000-2h-6a1 1 0 000 2zm10-6H7a1 1 0 00-1 1v3H3a1 1 0 00-1 1v10a3 3 0 003 3h13a4 4 0 004-4V4a1 1 0 00-1-1zM6 18a1 1 0 01-2 0V9h2zm14-1a2 2 0 01-2 2H7.82A3 3 0 008 18V5h12zm-9-4h1a1 1 0 000-2h-1a1 1 0 000 2zm0 4h1a1 1 0 000-2h-1a1 1 0 000 2z"/></svg>

<svg xmlns="http://www.w3.org/2000/svg" viewBox="0 0 24 24"><path d="M17,11H16a1,1,0,0,0,0,2h1a1,1,0,0,0,0-2Zm0,4H16a1,1,0,0,0,0,2h1a1,1,0,0,0,0-2ZM11,9h6a1,1,0,0,0,0-2H11a1,1,0,0,0,0,2ZM21,3H7A1,1,0,0,0,6,4V7H3A1,1,0,0,0,2,8V18a3,3,0,0,0,3,3H18a4,4,0,0,0,4-4V4A1,1,0,0,0,21,3ZM6,18a1,1,0,0,1-2,0V9H6Zm14-1a2,2,0,0,1-2,2H7.82A3,3,0,0,0,8,18V5H20Zm-9-4h1a1,1,0,0,0,0-2H11a1,1,0,0,0,0,2Zm0,4h1a1,1,0,0,0,0-2H11a1,1,0,0,0,0,2Z"/></svg>
